src/topics/icons/desk.svg

<svg height="106" preserveAspectRatio="xMidYMid" viewBox="0 0 256 106" width="256" xmlns="http://www.w3.org/2000/svg"><path d="m246.526165 38.5556177-18.432224-3.6930566-20.593903 23.3364352v-58.1989963l-17.345389 6.95249926v72.36683154c-2.236268-10.9630945-13.177861-13.9490269-22.2135-16.4079516-6.623561-1.8024998-12.342759-3.3595074-12.101684-7.9024472.23841-4.454883 4.656338-6.2173568 8.927754-5.9892093 5.046586.270842 9.144855 2.3575257 12.197581 6.2080174l12.748987-11.3500116c-6.915247-7.7236649-18.135207-9.4394419-24.292603-9.7689887-14.171461-.7591577-28.846383 5.519572-29.686815 21.2604254-.025307.4989894-.037294.9819687-.035961 1.4569429-5.066563-12.9123562-17.611771-22.0556066-32.297347-22.0556066-16.8073001 0-30.8096123 11.9744157-34.0008536 27.87137v-62.62319268l-17.3453885 6.95116506v32.46500932c-5.1051922-2.9619167-11.0308341-4.6643517-17.3560462-4.6643517-19.1634392 0-34.6987727 15.5594026-34.6987727 34.7571595 0 19.1964227 15.5353335 34.75716 34.6987727 34.75716 17.511879 0 31.9856812-12.9990794 34.3511424-29.8886761 2.3641318 16.8895967 16.8379372 29.8886761 34.3511459 29.8886761 13.184521 0 24.649551-7.3661009 30.521917-18.2144544l-18.777185-3.7624351c-3.088688 2.8511787-7.209599 4.597642-11.74207 4.597642-7.1110363 0-13.2204799-4.2881082-15.8989394-10.424079h15.9082644l33.990199-.0013342c.455511-2.2467873.695254-4.5709583.695254-6.9524993 0-1.2421371-.066596-2.4695983-.193127-3.6770461 3.974403 6.9017996 12.609139 9.2419806 19.953258 11.2326022 6.884613 1.8652069 12.830234 3.4755827 12.562523 8.4561389-.189133 3.5889895-4.208819 5.5235746-10.747138 5.1713467-6.062828-.3228755-10.784428-2.8831992-14.796125-8.0331986l-12.726345 12.7108923c7.469321 8.0412036 19.361893 9.8316956 25.866912 10.1812556 6.957869.373575 28.879683.096062 32.13619-17.4139362v16.1384442h17.345389v-30.3876654l26.811234 30.3796604h21.688728l-33.738466-38.2327425zm-203.9238724 46.4420544c-2.3721211 1.2167876-5.0545784 1.9079014-7.9008579 1.9079014-9.5803869 0-17.3480537-7.7797013-17.3480537-17.3779125 0-9.5968773 7.7676668-17.3779128 17.3480537-17.3779128 9.5803902 0 17.3467243 7.7810355 17.3467243 17.3779128 0 3.8184712-1.2320134 7.3487555-3.3164431 10.2159446.3116656 2.0680049 1.4610984 4.3681599 4.505832 6.4028101 1.4730856.983303-4.2953908 2.5563208-10.6352553-1.1487436zm44.902491-22.4211762c2.6771269-6.137305 8.7879031-10.4267477 15.8989394-10.4267477 7.112372 0 13.223148 4.2894427 15.900275 10.4267477z" fill="#239eda"/></svg>

<?xml version="1.0" encoding="UTF-8" standalone="no"?>
<svg width="256px" height="106px" viewBox="0 0 256 106" version="1.1" xmlns="http://www.w3.org/2000/svg" xmlns:xlink="http://www.w3.org/1999/xlink" preserveAspectRatio="xMidYMid">
    <g>
        <path d="M246.526165,38.5556177 L228.093941,34.8625611 L207.500038,58.1989963 L207.500038,0 L190.154649,6.95249926 L190.154649,79.3193308 C187.918381,68.3562363 176.976788,65.3703039 167.941149,62.9113792 C161.317588,61.1088794 155.59839,59.5518718 155.839465,55.008932 C156.077875,50.554049 160.495803,48.7915752 164.767219,49.0197227 C169.813805,49.2905647 173.912074,51.3772484 176.9648,55.2277401 L189.713787,43.8777285 C182.79854,36.1540636 171.57858,34.4382866 165.421184,34.1087398 C151.249723,33.3495821 136.574801,39.6283118 135.734369,55.3691652 C135.709062,55.8681546 135.697075,56.3511339 135.698408,56.8261081 C130.631845,43.9137519 118.086637,34.7705015 103.401061,34.7705015 C86.5937609,34.7705015 72.5914487,46.7449172 69.4002074,62.6418715 L69.4002074,0.0186788203 L52.0548189,6.96984388 L52.0548189,39.4348532 C46.9496267,36.4729365 41.0239848,34.7705015 34.6987727,34.7705015 C15.5353335,34.7705015 -4.26325641e-14,50.3299041 -4.26325641e-14,69.527661 C-4.26325641e-14,88.7240837 15.5353335,104.284821 34.6987727,104.284821 C52.2106517,104.284821 66.6844539,91.2857416 69.0499151,74.3961449 C71.4140469,91.2857416 85.8878523,104.284821 103.401061,104.284821 C116.585582,104.284821 128.050612,96.9187201 133.922978,86.0703666 L115.145793,82.3079315 C112.057105,85.1591102 107.936194,86.9055735 103.403723,86.9055735 C96.2926867,86.9055735 90.1832431,82.6174653 87.5047836,76.4814945 L103.413048,76.4814945 L137.403247,76.4801603 C137.858758,74.233373 138.098501,71.909202 138.098501,69.527661 C138.098501,68.2855239 138.031905,67.0580627 137.905374,65.8506149 C141.879777,72.7524145 150.514513,75.0925955 157.858632,77.0832171 C164.743245,78.948424 170.688866,80.5587998 170.421155,85.539356 C170.232022,89.1283455 166.212336,91.0629306 159.674017,90.7107027 C153.611189,90.3878272 148.889589,87.8275035 144.877892,82.6775041 L132.151547,95.3883964 C139.620868,103.4296 151.51344,105.220092 158.018459,105.569652 C164.976328,105.943227 186.898142,105.665714 190.154649,88.1557158 L190.154649,104.29416 L207.500038,104.29416 L207.500038,73.9064946 L234.311272,104.286155 L256,104.286155 L222.261534,66.0534125 L246.526165,38.5556177 L246.526165,38.5556177 Z M42.6022926,84.9976721 C40.2301715,86.2144597 37.5477142,86.9055735 34.7014347,86.9055735 C25.1210478,86.9055735 17.353381,79.1258722 17.353381,69.527661 C17.353381,59.9307837 25.1210478,52.1497482 34.7014347,52.1497482 C44.2818249,52.1497482 52.048159,59.9307837 52.048159,69.527661 C52.048159,73.3461322 50.8161456,76.8764165 48.7317159,79.7436056 C49.0433815,81.8116105 50.1928143,84.1117655 53.2375479,86.1464157 C54.7106335,87.1297187 48.9421571,88.7027365 42.6022926,84.9976721 L42.6022926,84.9976721 L42.6022926,84.9976721 Z M87.5047836,62.5764959 C90.1819105,56.4391909 96.2926867,52.1497482 103.403723,52.1497482 C110.516095,52.1497482 116.626871,56.4391909 119.303998,62.5764959 L87.5047836,62.5764959 L87.5047836,62.5764959 Z" fill="#239EDA"></path>
    </g>
</svg>
